icon-themes/sifr_svg/cmd/lc_flowchartshapes.svg

<svg viewBox="0 0 24 24" xmlns="http://www.w3.org/2000/svg"><g fill="#555753"><path d="m2 2v20h20v-20zm2 2h4v4h-4zm6 0h10v4h-10zm-6 6h4v10h-4zm6 0h10v10h-10z"/><path d="m4 4v16h16v-16z" opacity=".35"/></g></svg>

<svg xmlns="http://www.w3.org/2000/svg" viewBox="0 0 24 24">
  <path
     style="fill:#555753"
     d="M 2,2 V 22 H 22 V 2 Z M 4,4 H 8 V 8 H 4 Z m 6,0 H 20 V 8 H 10 Z M 4,10 H 8 V 20 H 4 Z m 6,0 H 20 V 20 H 10 Z"
     />
  <path
     style="opacity:0.35;fill:#555753"
     d="M 4,4 V 20 H 20 V 4 Z"
     />
</svg>
